svgs/solid/transporter-7.svg

<svg xmlns="http://www.w3.org/2000/svg" viewBox="0 0 512 512"><!--! Font Awesome Pro 6.0.0-alpha3 by @fontawesome - https://fontawesome.com License - https://fontawesome.com/license (Commercial License) --><path d="M93.75 300.4L64 288L51.63 258.3C50.88 256.9 49.5 256 48 256S45.13 256.9 44.38 258.3L32 288L2.25 300.4C.875 301.1 0 302.5 0 304s.875 2.875 2.25 3.625L32 320l12.38 29.75C45.13 351.1 46.5 352 48 352s2.875-.875 3.625-2.25L64 320l29.75-12.38C95.13 306.9 96 305.5 96 304S95.13 301.1 93.75 300.4zM509.8 76.38L480 64l-12.38-29.75C466.9 32.88 465.5 32 464 32s-2.875 .875-3.625 2.25L448 64l-29.75 12.38C416.9 77.13 416 78.5 416 80s.875 2.875 2.25 3.625L448 96l12.38 29.75C461.1 127.1 462.5 128 464 128s2.875-.875 3.625-2.25L480 96l29.75-12.38C511.1 82.88 512 81.5 512 80S511.1 77.13 509.8 76.38zM384 448H128c-17.62 0-32 14.38-32 32v32h320v-32C416 462.4 401.6 448 384 448z"/></svg>

<svg xmlns="http://www.w3.org/2000/svg" viewBox="0 0 512 512"><!-- Font Awesome Pro 6.0.0-alpha2 by @fontawesome - https://fontawesome.com License - https://fontawesome.com/license (Commercial License) --><path d="M93.75 300.375L64 288L51.625 258.25C50.875 256.875 49.5 256 48 256S45.125 256.875 44.375 258.25L32 288L2.25 300.375C0.875 301.125 0 302.5 0 304S0.875 306.875 2.25 307.625L32 320L44.375 349.75C45.125 351.125 46.5 352 48 352S50.875 351.125 51.625 349.75L64 320L93.75 307.625C95.125 306.875 96 305.5 96 304S95.125 301.125 93.75 300.375ZM509.75 76.375L480 64L467.625 34.25C466.875 32.875 465.5 32 464 32S461.125 32.875 460.375 34.25L448 64L418.25 76.375C416.875 77.125 416 78.5 416 80S416.875 82.875 418.25 83.625L448 96L460.375 125.75C461.125 127.125 462.5 128 464 128S466.875 127.125 467.625 125.75L480 96L509.75 83.625C511.125 82.875 512 81.5 512 80S511.125 77.125 509.75 76.375ZM384 448H128C110.375 448 96 462.375 96 480V512H416V480C416 462.375 401.625 448 384 448Z"/></svg>
